!!!COM:	Agricola, Alexander
!!!CDT:	~1446-1506/08/15
!!!OTL:	Tout a par moy I
!!!AGN:	Chanson; Rondeau
!!!SCT:	Agr4024
!!!SCA:	Agr4024
!!!voices:	4
!!!OMD:     Rondeau
**kern	**text	**kern	**text	**kern	**text	**kern	**text
*staff4	*staff4	*staff3	*staff3	*staff2	*staff2	*staff1	*staff1
*Ivox	*	*Ivox	*	*Ivox	*	*Ivox	*
*I"Bassus	*	*I"Contratenor	*	*I"Tenor	*	*I"Superius	*
*I'B	*	*I'Ct	*	*I'T	*	*I'S	*
*>[A,B]	*>[A,B]	*>[A,B]	*>[A,B]	*>[A,B]	*>[A,B]	*>[A,B]	*>[A,B]
*>A	*>A	*>A	*>A	*>A	*>A	*>A	*>A
*clefF4	*	*clefGv2	*	*clefGv2	*	*clefG2	*
*k[b-]	*	*k[b-]	*	*k[b-]	*	*k[b-]	*
*M2/1	*	*M2/1	*	*M2/1	*	*M2/1	*
*met(C|)	*	*met(C|)	*	*met(O)	*	*met(C|)	*
*	*	*	*	*rscale:1/2	*	*	*
=1-	=1-	=1-	=1-	=1-	=1-	=1-	=1-
1D	Tout	0r	.	0d	Tout	1a	Tout
1F	.	.	.	.	.	1a	a
=2	=2	=2	=2	=2-	=2	=2	=2
1G	a	0r	.	0d	a	1b-	par
2.F	.	.	.	.	.	1a	.
4E	.	.	.	.	.	.	.
=3	=3	=3	=3	=3-	=3	=3	=3
0C	par	0r	.	0e	par	0cc	.
=4	=4	=4	=4	=4	=4	=4	=4
1G	moy,	0r	.	0d	moy,	1b-	moy,
1F	.	.	.	.	.	2a	.
.	.	.	.	.	.	[2a	.
=5	=5	=5	=5	=5-	=5	=5	=5
!	!	!	!	!LO:N:vis=0	!	!	!
1.D	.	1A	Tout	[y0f	.	4a]	.
.	.	.	.	.	.	4g	.
.	.	.	.	.	.	4f	.
.	.	.	.	.	.	4e	.
.	.	1A	a	.	.	[1d	.
2C	.	.	.	.	.	.	.
=6	=6	=6	=6	=6-	=6	=6	=6
1BB-	.	1B-	par	0f]yy	.	2d]	.
.	.	.	.	.	.	2e	.
1D	af-	1A	moy,	.	.	1f	af-
=7	=7	=7	=7	=7	=7	=7	=7
0C	.	0c	af-	0e	af-	0g	.
=8	=8	=8	=8	=8-	=8	=8	=8
!	!	!	!	!LO:N:vis=0	!	!	!
1G	-fin	1B-	-fin	[y0d	-fin	1g	-fin
2.F	qu'on	2A	.	.	.	1a	.
.	.	[2A	qu'on	.	.	.	.
4E	.	.	.	.	.	.	.
=9	=9	=9	=9	=9-	=9	=9	=9
4D	.	4A]	.	0d]yy	.	2.f	qu'on
4C	.	4G	.	.	.	.	.
2.D	.	4F	.	.	.	.	.
.	.	4E	.	.	.	4g	.
.	.	1D	.	.	.	4a	.
4E	.	.	.	.	.	4b-	.
[2F	.	.	.	.	.	[2a	.
=10	=10	=10	=10	=10	=10	=10	=10
2F]	.	1A	.	0c	qu'on	2a]	.
4E	.	.	.	.	.	4g	.
4D	.	.	.	.	.	4f	.
1C	ne	1A	ne	.	.	1e	ne
=11	=11	=11	=11	=11-	=11	=11	=11
2.BB-	me	1B-	me	0d	ne	1d	me
4C	.	.	.	.	.	.	.
4D	.	1A	.	.	.	[1a	.
4E	.	.	.	.	.	.	.
[2F	.	.	.	.	.	.	.
=12	=12	=12	=12	=12-	=12	=12	=12
2F]	.	0c	.	0A	.	2a]	.
4E	.	.	.	.	.	4g	.
4D	.	.	.	.	.	4f	.
2C	.	.	.	.	.	2e	.
2F	.	.	.	.	.	[2a	voy-
=13	=13	=13	=13	=13	=13	=13	=13
1G	.	1B-	voy-	1r	.	2a]	.
.	.	.	.	.	.	2g	.
2.D	voy-	1A	.	1d	me	1a	-e,
4E	.	.	.	.	.	.	.
=14	=14	=14	=14	=14-	=14	=14	=14
2F	.	2A	.	1c	voy-	2.A	voy-
2.F	.	2.A	.	.	.	.	.
.	.	.	.	.	.	4B-	.
.	.	.	.	1A	.	2c	.
4E	.	4G	.	.	.	.	.
4D	.	4F	.	.	.	[2d	.
4C	.	4E	.	.	.	.	.
=15	=15	=15	=15	=15-	=15	=15	=15
2.BB-	.	1D	-e,	0B-	.	4d]	.
.	.	.	.	.	.	4e	.
.	.	.	.	.	.	1f	.
4AA	.	.	.	.	.	.	.
1GG	.	1r	.	.	.	.	.
.	.	.	.	.	.	2e	.
=16	=16	=16	=16	=16	=16	=16	=16
!	!	!	!	!LO:N:vis=0	!	!	!
0FF	-e,	0r	.	[y0A	.	1.f	-e,
.	.	.	.	.	.	4e	.
.	.	.	.	.	.	4d	.
=17	=17	=17	=17	=17-	=17	=17	=17
0F	.	1A	Tout	0A]yy	.	2c	.
.	.	.	.	.	.	4f	voy-
.	.	.	.	.	.	4e	.
.	.	1A	a	.	.	4f	.
.	.	.	.	.	.	4g	.
.	.	.	.	.	.	[2a	.
=18	=18	=18	=18	=18-	=18	=18	=18
1r	.	1B-	par	1E	.	2a]	.
.	.	.	.	.	.	2g	.
[1F	qu'on	1A	moy,	1F	.	[1a	.
=19	=19	=19	=19	=19	=19	=19	=19
2F]	.	0c	af-	0A	.	2a]	.
4E	.	.	.	.	.	4g	.
4D	.	.	.	.	.	4f	.
2C	ne	.	.	.	.	4e	.
.	.	.	.	.	.	4d	.
2FF	me	.	.	.	.	[2f	.
=20	=20	=20	=20	=20-	=20	=20	=20
4GG	voy-	1B-	-fin	1G	.	2f]	.
4AA	.	.	.	.	.	.	.
4BB-	.	.	.	.	.	2.e	.
4C	.	.	.	.	.	.	.
1D	.	1A	qu'on	1F	.	.	.
.	.	.	.	.	.	4d	.
.	.	.	.	.	.	[2d	.
=21	=21	=21	=21	=21-	=21	=21	=21
0AA	-e,	1A	ne	0E	.	2d]	.
.	.	.	.	.	.	4c#i	.
.	.	.	.	.	.	4Bni	.
.	.	2A	me	.	.	1c#i	.
.	.	[2A	voy-	.	.	.	.
=22	=22	=22	=22	=22	=22	=22	=22
!	!	!	!	!LO:N:vis=0	!	!	!
2r	.	4A]	.	[y0D	-e,	1d	-e,
.	.	4G	.	.	.	.	.
2.A	Si	4F	.	.	.	.	.
.	.	4E	.	.	.	.	.
.	.	1D	-e,	.	.	2r	.
4G	.	.	.	.	.	.	.
4F	.	.	.	.	.	[2f	Si
4E	.	.	.	.	.	.	.
=23	=23	=23	=23	=23-	=23	=23	=23
2D	.	0A	Si	0D]yy	.	4f]	.
.	.	.	.	.	.	4g	.
2.F	tres-	.	.	.	.	4f	.
.	.	.	.	.	.	8eL	.
.	.	.	.	.	.	8dJ	.
.	.	.	.	.	.	2c	.
4E	.	.	.	.	.	.	.
4D	.	.	.	.	.	2f	tres-
4C	.	.	.	.	.	.	.
=24	=24	=24	=24	=24-	=24	=24	=24
2BB-	.	1B-	tres-	0r	.	2d	.
2GG	.	.	.	.	.	2.g	.
1D	.	1A	.	.	.	.	.
.	.	.	.	.	.	8fL	.
.	.	.	.	.	.	8gJ	.
.	.	.	.	.	.	4f	.
.	.	.	.	.	.	8eL	.
.	.	.	.	.	.	8dJ	.
=25	=25	=25	=25	=25	=25	=25	=25
2C	.	1c	.	0G	Si	1e	.
4BB-	.	.	.	.	.	.	.
4AA	.	.	.	.	.	.	.
1GG	.	1B-	.	.	.	2r	.
.	.	.	.	.	.	2g	-do-
=26	=26	=26	=26	=26-	=26	=26	=26
0r	.	2A	-do-	1F	.	2a	.
.	.	2.A	-lent	.	.	2.cc	.
!	!	!	!	!LO:N:vis=1	!	!	!
.	.	.	.	[y1F	tres-	.	.
.	.	4G	.	.	.	4b-	.
.	.	4F	.	.	.	4a	.
.	.	4E	.	.	.	4g	.
=27	=27	=27	=27	=27-	=27	=27	=27
2.D	-do-	0D	.	1F]yy	.	4f	.
.	.	.	.	.	.	4e	.
.	.	.	.	.	.	1d	.
4E	.	.	.	.	.	.	.
1F	.	.	.	1D	.	.	.
.	.	.	.	.	.	2dd	.
=28	=28	=28	=28	=28	=28	=28	=28
2G	.	0r	.	0E	-do-	2b-	.
1C	.	.	.	.	.	2.cc	.
.	.	.	.	.	.	4b-	.
2c	.	.	.	.	.	4a	.
.	.	.	.	.	.	4g	.
=29	=29	=29	=29	=29-	=29	=29	=29
2d	.	0r	.	0D	-lent	4f	.
.	.	.	.	.	.	4e	.
4c	.	.	.	.	.	1g	.
4B-	.	.	.	.	.	.	.
4A	.	.	.	.	.	.	.
4G	.	.	.	.	.	.	.
2A	.	.	.	.	.	2f#i	.
=30	=30	=30	=30	=30-	=30	=30	=30
2G	-lent	0r	.	[0d	que	1.g	-lent
1B-	.	.	.	.	.	.	.
4A	.	.	.	.	.	4f	.
4G	.	.	.	.	.	4e	.
=31	=31	=31	=31	=31	=31	=31	=31
2A	.	1D	que	0d]	.	2f	.
2B-	.	.	.	.	.	1g	.
2A	.	1D	plus	.	.	.	.
2D	.	.	.	.	.	2f#i	.
=32	=32	=32	=32	=32-	=32	=32	=32
2r	.	1E	.	1G	plus	2g	.
1G	que	.	.	.	.	2G	que
!	!	!	!	!LO:N:vis=1	!	!	!
.	.	1D	.	[y1d	.	1A	plus
2F#i	.	.	.	.	.	.	.
=33	=33	=33	=33	=33-	=33	=33	=33
2G	plus	0r	.	1d]yy	.	2G	.
2GG	.	.	.	.	.	1G	.
[1AA	.	.	.	[1c	je	.	.
.	.	.	.	.	.	4F#i	.
.	.	.	.	.	.	4E	.
=34	=34	=34	=34	=34	=34	=34	=34
1AA]	.	1r	.	1c]	.	1F#i	.
!	!	!	!	!LO:N:vis=1	!	!	!
[1GG	je	1D	je	[y1B-	ne	1G	.
=35	=35	=35	=35	=35-	=35	=35	=35
1GG]	.	1D	ne	1B-]yy	.	2r	.
.	.	.	.	.	.	1g	je
1r	.	1E	.	1G	pour-	.	.
.	.	.	.	.	.	4f#i	.
.	.	.	.	.	.	4e	.
=36	=36	=36	=36	=36-	=36	=36	=36
2r	.	1D	.	1A	.	1f#i	.
2D	ne	.	.	.	.	.	.
1E	pour-	1r	.	1G	.	2g	ne
.	.	.	.	.	.	[2G	pour-
=37	=37	=37	=37	=37	=37	=37	=37
1D	-roy-	1r	.	1.d	-roy-	2G]	.
.	.	.	.	.	.	2F	.
1GG	-e,	1D	pour-	.	.	4G	.
.	.	.	.	.	.	4A	.
.	.	.	.	2c	.	4B-	.
.	.	.	.	.	.	4c	.
=38	=38	=38	=38	=38-	=38	=38	=38
2r	.	1D	-roy-	1B-	.	4d	.
.	.	.	.	.	.	4e	.
1d	pour-	.	.	.	.	4f	.
.	.	.	.	.	.	8eL	.
.	.	.	.	.	.	8fJ	.
.	.	1E-i	.	1G	.	[1g	.
2c	-roy-	.	.	.	.	.	.
=39	=39	=39	=39	=39-	=39	=39	=39
1d	-e,	0D	-e,	0A	.	2g]	.
.	.	.	.	.	.	4f#i	.
.	.	.	.	.	.	4e	.
2r	.	.	.	.	.	1f#i	-roy-
2D	Je	.	.	.	.	.	.
=40	=40	=40	=40	=40	=40	=40	=40
2E-	me	1r	.	0G	-e,	1g	-e,
4D	.	.	.	.	.	.	.
4C	.	.	.	.	.	.	.
2BB-	.	1D	Je	.	.	2r	.
2GG	.	.	.	.	.	[2d	Je
=41	=41	=41	=41	=41-	=41	=41	=41
2BB-	.	1D	me	0r	.	4d]	.
.	.	.	.	.	.	4c	.
2D	.	.	.	.	.	1B-	.
1C	.	1E-i	.	.	.	.	.
.	.	.	.	.	.	2A	.
=42	=42	=42	=42	=42-	=42	=42	=42
1BB-	.	1D	.	0B-	Je	2B-	.
.	.	.	.	.	.	1d	.
1GG	.	1r	.	.	.	.	.
.	.	.	.	.	.	4c	.
.	.	.	.	.	.	4B-	.
=43	=43	=43	=43	=43	=43	=43	=43
1AA	.	1r	.	1A	me	1c	me
!	!	!	!	!LO:N:vis=1	!	!	!
2r	.	1D	tiens	[y1A	tiens	2d	tiens
[2D	tiens	.	.	.	.	[2f	.
=44	=44	=44	=44	=44-	=44	=44	=44
4D]	.	1D	seul	1A]yy	.	4f]	.
4E	.	.	.	.	.	4e	.
2F	.	.	.	.	.	1d	.
2E	.	1Eni	.	1G	.	.	.
2G	.	.	.	.	.	2c#i	.
=45	=45	=45	=45	=45-	=45	=45	=45
1.F	seul	1D	.	0A	seul	2d	seul
.	.	.	.	.	.	2d	Je
.	.	1r	.	.	.	[1f	me
4E	.	.	.	.	.	.	.
4D	.	.	.	.	.	.	.
=46	=46	=46	=46	=46	=46	=46	=46
0D	.	1A	Je	1r	.	2f]	.
.	.	.	.	.	.	4e	.
.	.	.	.	.	.	4d	.
!	!	!	!	!LO:N:vis=1	!	!	!
.	.	1A	me	[y1d	Je	4f	.
.	.	.	.	.	.	4e	.
.	.	.	.	.	.	[2a	.
=47	=47	=47	=47	=47-	=47	=47	=47
1r	.	1B-	tiens	1d]yy	.	2a]	.
.	.	.	.	.	.	2g	.
1F	Je	1A	seul	1c	me	[1a	tiens
=48	=48	=48	=48	=48-	=48	=48	=48
1G	me	0r	.	0B-	tiens	2a]	.
.	.	.	.	.	.	4g	.
.	.	.	.	.	.	4f	.
1E-	tiens	.	.	.	.	1g	.
=49	=49	=49	=49	=49	=49	=49	=49
2.F	seul	0r	.	0A	seul	2.a	seul
4Eni	.	.	.	.	.	4g	.
2D	.	.	.	.	.	2f	.
2C	.	.	.	.	.	2e	.
=50	=50	=50	=50	=50-	=50	=50	=50
!	!	!	!	!LO:N:vis=0	!	!	!
1BB-	.	1r	.	[y0d	comme	1f	.
2r	.	1A	comme	.	.	2.f	comme
[2D	comme	.	.	.	.	.	.
.	.	.	.	.	.	4e	.
=51	=51	=51	=51	=51-	=51	=51	=51
4D]	.	1A	u-	0d]yy	.	1f	.
4C	.	.	.	.	.	.	.
4BB-	.	.	.	.	.	.	.
4AA	.	.	.	.	.	.	.
4GG	.	1B-	.	.	.	1g	.
4AA	.	.	.	.	.	.	.
4BB-	.	.	.	.	.	.	.
4C	.	.	.	.	.	.	.
=52	=52	=52	=52	=52	=52	=52	=52
1FF	u-	0A	-ne	0c	u-	3%2aV	u-
.	.	.	.	.	.	3AZ	.
1F	-ne	.	.	.	.	3.AV	.
.	.	.	.	.	.	6B-	.
.	.	.	.	.	.	3cZ	.
=53	=53	=53	=53	=53-	=53	=53	=53
1r	.	0r	.	1B-	.	3dV	.
.	.	.	.	.	.	3e	.
.	.	.	.	.	.	3fZ	.
1E-	e-	.	.	1G	.	3gV	.
.	.	.	.	.	.	3a	.
.	.	.	.	.	.	3b-Z	.
=54	=54	=54	=54	=54-	=54	=54	=54
1C	-ba-	0r	.	0A	.	3.ccV	.
.	.	.	.	.	.	6b-	.
.	.	.	.	.	.	6a	.
.	.	.	.	.	.	6gZ	.
1D	.	.	.	.	.	3gV	.
.	.	.	.	.	.	3e	.
.	.	.	.	.	.	3f#iZ	.
=55	=55	=55	=55	=55	=55	=55	=55
0E-	-y-	0r	.	0G	-ne'e-	1g	-ne
.	.	.	.	.	.	2r	.
.	.	.	.	.	.	2g	e-
=56	=56	=56	=56	=56-	=56	=56	=56
!	!	!	!	!LO:N:vis=1.	!	!	!
0D	-e.	1A	e-	[y0d	.	2.f	.
.	.	.	.	.	.	4e	.
.	.	1A	-ba-	.	.	4f	.
.	.	.	.	.	.	4e	.
.	.	.	.	.	.	[2a	.
=57	=57	=57	=57	=57-	=57	=57	=57
0r	.	1B-	-y-	1d]yy	.	2a]	.
.	.	.	.	.	.	2g	.
.	.	1A	-e.	1e	-ba-	2.a	-ba-
.	.	.	.	.	.	4g	.
=58	=58	=58	=58	=58	=58	=58	=58
1BB-	e-	0r	.	1d	-y-	2f	.
.	.	.	.	.	.	4e	.
.	.	.	.	.	.	4d	.
1C	.	.	.	1c	.	1e	-y-
=59	=59	=59	=59	=59-	=59	=59	=59
0GG	-ba-	0r	.	0B-	.	1d	.
.	.	.	.	.	.	[1g	.
=60	=60	=60	=60	=60-	=60	=60	=60
0D	-y-	0r	.	0A	.	2g]	.
.	.	.	.	.	.	4f	.
.	.	.	.	.	.	4e	.
.	.	.	.	.	.	2.f	.
.	.	.	.	.	.	4g	.
=61	=61	=61	=61	=61	=61	=61	=61
[0Cl	-e.	1r	.	[0cl	-e.	[0el	-e.
.	.	1G	e-	.	.	.	.
=62	=62	=62	=62	=62-	=62	=62	=62
0C_	.	1G	-ba-	0c_	.	0e_	.
.	.	1A	-y-	.	.	.	.
=63	=63	=63	=63	=63-	=63	=63	=63
0C]	.	0Gl	-e.	0c]	.	0e]	.
!!LO:LB:i:g=z
=64||	=64||	=64||	=64||	=64||	=64||	=64||	=64||
*>B	*>B	*>B	*>B	*>B	*>B	*>B	*>B
*clefF4	*	*clefGv2	*	*clefGv2	*	*clefG2	*
*k[b-]	*	*k[b-]	*	*k[b-]	*	*k[b-]	*
*M2/1	*	*M2/1	*	*M2/1	*	*M2/1	*
*met(C|)	*	*met(C|)	*	*met(O)	*	*met(C|)	*
!!section: Tout a par moy
!!!OMD: Tout a par moy
1.D	Fai-	0r	.	0r	.	1f	Fai-
.	.	.	.	.	.	1d	-sant
4C	.	.	.	.	.	.	.
4BB-	.	.	.	.	.	.	.
=65	=65	=65	=65	=65-	=65	=65	=65
2C	.	1r	.	0r	.	1e	re-
2AA	.	.	.	.	.	.	.
2BB-	.	1F	Fai-	.	.	1d	-grez
[2D	-sant	.	.	.	.	.	.
=66	=66	=66	=66	=66-	=66	=66	=66
4D]	.	1D	-sant	0r	.	2r	.
4C	.	.	.	.	.	.	.
4BB-	.	.	.	.	.	1d	de
4AA	.	.	.	.	.	.	.
2GG	.	1E	re-	.	.	.	.
2AA	re-	.	.	.	.	2c	.
=67	=67	=67	=67	=67	=67	=67	=67
2.BB-	-grez	0D	-grez	0f	Fai-	2.d	ma
4C	.	.	.	.	.	4e	.
4D	.	.	.	.	.	4f	.
4E	.	.	.	.	.	4g	.
2F	.	.	.	.	.	4a	.
.	.	.	.	.	.	8gL	.
.	.	.	.	.	.	8aJ	.
=68	=68	=68	=68	=68-	=68	=68	=68
2G	.	0r	.	0d	-sant	2b-	.
2B-	.	.	.	.	.	2.f	.
2F	de	.	.	.	.	.	.
.	.	.	.	.	.	4e	.
[2B-	ma	.	.	.	.	[2d	.
=69	=69	=69	=69	=69-	=69	=69	=69
2B-]	.	0r	.	0e	re-	2d]	.
4A	.	.	.	.	.	4c#i	.
4G	.	.	.	.	.	4Bni	.
1A	.	.	.	.	.	1c#i	.
=70	=70	=70	=70	=70	=70	=70	=70
1B-	.	1r	.	0d	-grez	1.d	.
2.BB-	dou-	[1F	Fai-	.	.	.	.
.	.	.	.	.	.	4c	.
4C	.	.	.	.	.	4B-	.
=71	=71	=71	=71	=71-	=71	=71	=71
1D	.	1F]	.	0f	de	1A	.
1BB-	.	1D	-sant	.	.	2r	.
.	.	.	.	.	.	2B-	dou-
=72	=72	=72	=72	=72-	=72	=72	=72
2AA	.	1E	re-	1c	ma	2c	.
2C	.	.	.	.	.	1A	.
1BB-	.	1D	-grez	1d	.	.	.
.	.	.	.	.	.	2G	.
=73	=73	=73	=73	=73	=73	=73	=73
2AA	-lan-	0r	.	1c	dou-	2.A	-lan-
2.FF	.	.	.	.	.	.	.
.	.	.	.	.	.	8B-L	.
.	.	.	.	.	.	8cJ	.
!	!	!	!	!LO:N:vis=1	!	!	!
.	.	.	.	[y1f	-lan-	2d	.
4GG	.	.	.	.	.	.	.
2AA	.	.	.	.	.	2c	.
=74	=74	=74	=74	=74-	=74	=74	=74
2BB-	.	0r	.	1f]yy	.	2d	.
2D	.	.	.	.	.	1B-	.
1C	-te	.	.	1e	-te	.	.
.	.	.	.	.	.	2A	-te
=75	=75	=75	=75	=75-	=75	=75	=75
2BB-	vi-	0r	.	1d	vi-	2B-	vi-
2D	.	.	.	.	.	1b-	.
1C	.	.	.	1e	.	.	.
.	.	.	.	.	.	2a	.
=76	=76	=76	=76	=76	=76	=76	=76
2.BB-	.	0r	.	1.d	.	2b-	.
.	.	.	.	.	.	4a	.
4C	.	.	.	.	.	4g	.
2D	.	.	.	.	.	2f	.
2E	.	.	.	2c	.	2g	.
=77	=77	=77	=77	=77-	=77	=77	=77
2F	.	0F	Fai-	1A	.	1a	-e
2.D	.	.	.	.	.	.	.
!	!	!	!	!LO:N:vis=1	!	!	!
.	.	.	.	[y1d	.	2r	.
4E	.	.	.	.	.	.	.
2F	.	.	.	.	.	2a	dou-
=78	=78	=78	=78	=78-	=78	=78	=78
1BB-	-e,	1D	-sant	1d]yy	.	4g	.
.	.	.	.	.	.	4f	.
.	.	.	.	.	.	2g	.
1AA	dou-	1E	re-	1c#i	.	1a	.
=79	=79	=79	=79	=79	=79	=79	=79
!	!	!	!	!LO:N:vis=0	!	!	!
2.D	-lan-	0D	-grez	[y0d	-e	2.f	-lan-
4E	.	.	.	.	.	4e	.
2F	.	.	.	.	.	4d	.
.	.	.	.	.	.	4c	.
[2G	.	.	.	.	.	[2B-	.
=80	=80	=80	=80	=80-	=80	=80	=80
2G]	.	0r	.	0d]yy	.	2B-]	.
4F	-te	.	.	.	.	4A	-te
4E	.	.	.	.	.	4G	.
2F	vi-	.	.	.	.	2A	vi-
2G	.	.	.	.	.	2B-	.
=81	=81	=81	=81	=81-	=81	=81	=81
2A	-e	0F	Fai-	[0A	et	1c	.
2.c	et	.	.	.	.	.	.
.	.	.	.	.	.	1F	-e
4B-	.	.	.	.	.	.	.
4A	.	.	.	.	.	.	.
4G	.	.	.	.	.	.	.
=82	=82	=82	=82	=82	=82	=82	=82
2F	.	1D	-sant	0A]	.	1r	.
4E	.	.	.	.	.	.	.
4D	.	.	.	.	.	.	.
1C	.	1E	re-	.	.	1c	et
=83	=83	=83	=83	=83-	=83	=83	=83
[0BB-	de	0D	-grez	0B-	de	2.d	de
.	.	.	.	.	.	4e	.
.	.	.	.	.	.	4f	.
.	.	.	.	.	.	4g	.
.	.	.	.	.	.	[2f	.
=84	=84	=84	=84	=84-	=84	=84	=84
1BB-]	.	0r	.	0B-	for-	4f]	.
.	.	.	.	.	.	4e	.
.	.	.	.	.	.	4d	.
.	.	.	.	.	.	4c	.
1GG	for-	.	.	.	.	2d	.
.	.	.	.	.	.	[2g	for-
=85	=85	=85	=85	=85	=85	=85	=85
0D	-tu-	1r	.	0A	-tu-	2g]	.
.	.	.	.	.	.	4f#i	.
.	.	.	.	.	.	4e	.
.	.	1F	Fai-	.	.	1f#i	.
=86	=86	=86	=86	=86-	=86	=86	=86
1GG	.	1D	-sant	0G	-ne	1.g	-tu-
1C	.	1E	re-	.	.	.	.
.	.	.	.	.	.	4f	.
.	.	.	.	.	.	4e	.
=87	=87	=87	=87	=87-	=87	=87	=87
1BB-	.	1D	-grez	1r	.	1f	.
1C	.	1r	.	1c	for-	2e	.
.	.	.	.	.	.	4d	.
.	.	.	.	.	.	4c	.
=88	=88	=88	=88	=88	=88	=88	=88
1GG	-ne	1r	.	1B-	-tu-	1d	.
!	!	!	!	!LO:N:vis=1	!	!	!
1r	.	1F	Fai-	[y1A	.	2c	.
.	.	.	.	.	.	[2f	.
=89	=89	=89	=89	=89-	=89	=89	=89
1F	for-	1D	-sant	1A]yy	.	4f]	.
.	.	.	.	.	.	4e	.
.	.	.	.	.	.	1d	.
1G	.	1E	re-	1G	.	.	.
.	.	.	.	.	.	2c#i	.
=90	=90	=90	=90	=90-	=90	=90	=90
1.A	-tu-	1D	-grez	0F	-ne	1d	-ne
.	.	1r	.	.	.	1f	for-
4G	.	.	.	.	.	.	.
4F	.	.	.	.	.	.	.
=91	=91	=91	=91	=91	=91	=91	=91
4E	.	0r	.	1r	.	2g	-tu-
4D	.	.	.	.	.	.	.
2.G	.	.	.	.	.	2.b-	.
.	.	.	.	1B-	qui	.	.
4F	.	.	.	.	.	4a	.
2G	.	.	.	.	.	[2g	.
=92	=92	=92	=92	=92-	=92	=92	=92
1D	.	1F	Fai-	1A	.	2g]	.
.	.	.	.	.	.	2f#i	.
!	!	!	!	!LO:N:vis=1	!	!	!
1GG	-ne	1D	-sant	[y1G	.	1g	-ne
=93	=93	=93	=93	=93-	=93	=93	=93
1C	qui	1E	re-	1G]yy	.	0r	.
2D	si	1D	-grez	1F	.	.	.
[2D	fort,	.	.	.	.	.	.
=94	=94	=94	=94	=94	=94	=94	=94
4D]	.	0r	.	1E	.	2r	.
4C#i	.	.	.	.	.	.	.
4C#i	.	.	.	.	.	2g	qui
4BBni	.	.	.	.	.	.	.
2D	.	.	.	1D	.	2f	si
[2F	si	.	.	.	.	[2a	.
=95	=95	=95	=95	=95-	=95	=95	=95
4F]	.	0r	.	0F	si	4a]	.
4E	.	.	.	.	.	4g	.
4D	.	.	.	.	.	1f	.
4C	.	.	.	.	.	.	.
4D	.	.	.	.	.	.	.
4C	.	.	.	.	.	.	.
2D	.	.	.	.	.	4e	.
.	.	.	.	.	.	4d	.
=96	=96	=96	=96	=96-	=96	=96	=96
2AA	.	0r	.	0E	.	2c	.
2GG	.	.	.	.	.	1d	.
2AA	.	.	.	.	.	.	.
2G	fort	.	.	.	.	2c#i	.
=97	=97	=97	=97	=97	=97	=97	=97
!	!	!	!	!LO:N:vis=0	!	!	!
2A	.	0r	.	[y0D	fort	0d	fort
2B-	.	.	.	.	.	.	.
2A	.	.	.	.	.	.	.
2r	.	.	.	.	.	.	.
=98	=98	=98	=98	=98-	=98	=98	=98
1A	me	1F	Fai-	0D]yy	.	0r	.
1B-	guer-	1D	-sant	.	.	.	.
=99	=99	=99	=99	=99-	=99	=99	=99
1c	.	1E	re-	1r	.	0r	.
[1d	-roy-	1D	-grez	1A	me	.	.
=100	=100	=100	=100	=100	=100	=100	=100
2d]	.	0r	.	1B-	guer-	1r	.
4c	.	.	.	.	.	.	.
4B-	.	.	.	.	.	.	.
1A	.	.	.	1c	.	1e	me
=101	=101	=101	=101	=101-	=101	=101	=101
1D	-e,	0r	.	1d	-roy-	1f	guer-
2r	.	.	.	1c	.	1g	.
2E	guer-	.	.	.	.	.	.
=102	=102	=102	=102	=102-	=102	=102	=102
2.F	-roy-	1F	Fai-	1.A	.	1.a	-roy-
4G	.	.	.	.	.	.	.
4A	.	1D	-sant	.	.	.	.
4B-	.	.	.	.	.	.	.
[2A	.	.	.	2B-	.	4g	.
.	.	.	.	.	.	4f	.
=103	=103	=103	=103	=103	=103	=103	=103
2A]	.	1E	re-	1c	.	2e	.
2G	.	.	.	.	.	2g	.
2A	.	1D	-grez	1d	.	2f	.
2F	.	.	.	.	.	2a	.
=104	=104	=104	=104	=104-	=104	=104	=104
1E-	.	0r	.	1G	.	2g	.
.	.	.	.	.	.	2.b-	.
2D	.	.	.	1B-	.	.	.
.	.	.	.	.	.	4a	.
[2E-i	.	.	.	.	.	[2g	.
=105	=105	=105	=105	=105-	=105	=105	=105
2E-]	.	1r	.	0A	.	2g]	.
4D	.	.	.	.	.	4f#i	.
4C	.	.	.	.	.	4e	.
1D	.	1F	Fai-	.	.	1f#i	.
=106	=106	=106	=106	=106	=106	=106	=106
[0GGl	-e.	1D	-sant	[0Gl	-e.	[0gl	-e.
.	.	1E	re-	.	.	.	.
=107	=107	=107	=107	=107	=107	=107	=107
0GG]	.	0Dl	-grez	0G]	.	0g]	.
==	==	==	==	==	==	==	==
*-	*-	*-	*-	*-	*-	*-	*-
!!!RDF**kern: l=long note in original notation
!!!RDF**kern: i=editorial accidental
!!!RDF**kern: V=start of tuplet marker
!!!RDF**kern: Z=end of tuplet marker
!!!ENC:	Chris Gage 04-05-2017
!!!END:	2018/01/11/
!!!EED:	Jesse Rodin
!!!EEV:	2018/01/18/
!!!ONB:	Translated from MusicXML and edited on 2018/01/18/ by Craig Sapp
!!muse2ps: C^@{COM}^i2I150v85,85,85,150z18c120l2700
